**kern
*staff1
*head[head1]
*solo1[solo1a]
*solo1[solo1b]
*solo1[solo1aa]
*solo2[solo2a]
*solo2[solo2b]
*solo2[solo2aa]
*clefG2
*k[]
*B-:
*M4/4
8r
*>head1
{[8g/
=1
2.g/]
8g/L
[8b-/J
=2||
4b-\]
4cc\
8dd-\
4ee-\
8b-\
=3
4dd-\
8cc\L
8b-\J
[2dd-\
=4
4dd-\]
2cc\
8b-\L
8ee-\J}
=5
4r
{8dd/L
8a/J
8f#/L
8a/
8f#/
8e/J
=6
4b-\
[2b-\
8b-\L]
8cc\J
=7
8b-/L
8a/J
4a/
4r
8r
8a/
=8
8g/L
8f#/J
4f#/}
2r
=9
1r
=10||
1r
=11
1r
=12
1r
=13
1r
=14
1r
=15
1r
=16
2r
4r
8r
{16E-/LL
16G/JJ
=17
8c/L
8e-/
8d/
8c/J
8B/L
8c/
8d/
8B/J
=18||
8c/L
[8g/J
2g/]
4r
=19
2r
8a-/L
16g/L
16g-/J
8f/
8e-/J
=20
8d/L
8c/
8B/
8d/J
8f/L
8a-/
8g/
8f/J
=21
8e-/L
8g/
8b-/
8dd/J
4.ff\
8ee\
=22
4ee-\}
4r
8r
{8d/
12e-/L
12g/
12b-/J
=23
8dd\L
8dd-\
8cc\
8b\J
8b-/L
8g/
8e-/
8c/J
=24
8d/L
8c/
8d/
8c/J
4f/}
4r
=25
4r
{2dd\
[4ee-\
=26||
2ee-\_
8ee-\]
4dd\
8b-\
=27
8a-/L
8g/
8a-/
8b-/J
[2cc\
=28
1cc]
=29
4ff\
4f/}
2r
=30
8r
{8F/L
8G/
8B-/J
8e-/L
8Bn/
8A-/
8E/J
=31
8G/L
8B-/
8c/
8B-/J
4.d-/
8B-/
=32
8c/L
8F#/J}
4r
2r
=33
*>solo1a
{8a/L
8b-/
8cc/
8a/J
8b-/L
8f/
8d/
8B-/J
=34||
8f#/L
8g/
8e-/
8c/J
8fn/L
8e-/
8d/
8c/J
=35
8B-/L
8A/
8A-/
8B-/J
8b-/L
8g-/J}
4r
=36
1r
=37
8r
{8g/
12b-\L
12cc\
12ff\J
4cc\
8r
8g/
=38
12b-\L
12cc\
12ff\J
4cc\}
2r
=39
8r
{8g-/
12b-\L
12cc\
12ff\J
4cc\
8r
8g-/
=40
12b-\L
12cc\
12ff\J
4cc\}
2r
=41
2r
{8g\L
8b-\
8dd\
8ff\J
=42
8ee-\L
8dd\
8cc\
8b\J
8b-/L
8a/
8g/
8f/J
=43
8e/L
8c/
8c#/
8d/J}
2r
=44
4r
{16d/LL
16e/
16f/
16g/JJ
8a/L
8g/
8f#/
8g/J
=45
8b-/L
8g/J}
4r
4r
{12a-/L
12g/
12g-/J
=46
8f/L
8e-/
8d/
8c/J
8B/L
8d/
8f/
8a-/J
=47
8g/L
8f/J
12e-/L
12g/
12b-/J
8dd\L
8dd-\
8cc\
8bn\J
=48
8b-/L
8g/
8e-/
8c/J
8b-/L
8g-/
8e-/
8B/J
=49
12a/L
12a#/
12b/J
8cc/L
8an/J
8b-/L
8f/
8d/
8B-/J
=50||
8f#/L
8g/
8e-/
8c/J
8fn/L
8e-/
8d/
8c/J
=51
8B-/L
8A/
8A-/
8B-/J
8b-/L
[8g-/J
4g-/]}
=52
1r
=53
8r
{8f/
12g\L
12b-\
12dd\J
8ff\L
8ee-\
8dd\
8cc\J
=54
8b-/L
8a-/
8g/
8f/J
8e-/L
8c/
8g-/
8b-/J
=55
4dd-\
8dd-\L
[8cc\J
4cc\]}
4r
=56
1r
=57
8r
{8c#/L
8d/
8f/J
8a\L
8b-\
8cc\
8bn\J
=58||
8b-/L
8f/
8d/
8B-/J
12a/L
12g/
12f#/J
4g/}
=59
2r
{12a/L
12b-/
12a/J
8g/L
8f/J
=60
8e/L
8g/
8b-/
8dd/J
4a/
4r
=61
8r
16cc\LL
16b\J
8b-\
8a-\J
8g/L
8g-/
8f/
8e/J
=62
8e-/L
8B-/
8G/
8B-/J
8d/L
8c/
8A/
8B-/J
=63
8c/L
8B-/
8A/
8B-/J
8d/L
8f/J}
4r
=64
1r
=65
4r
*>solo1b
{12e/L
12e/
12e/J
8e/L
8f#/
8g#/
8b/J
=66||
4dd#\
8ff#\L
[8ddn\J
8dd\L]
8ff#\J
4cc#\}
=67
1r
=68
1r
=69
4r
{12d/L
12d/
12d/J
8d/L
8e/
8f#/
8a/J
=70
8cc#\
4ee\
[8ccn\
8cc\L]
8ee\J
[4b\
=71
4b\_
8b\L]
16ee\L
16dd\JJ
8cc#/L
8e/
8f#/
8g#/J
=72
8b/L
8g#/
8a/
8b/J
8cc#\L
[8ee\J
4ee\]}
=73
2r
{8a\L
8cc\
8ee\
8gg\J
=74||
8ff#\L
8ee\
8dd\
8dd-\J
4cc\}
4r
=75
4r
8r
{16dd\LL
16cc\JJ
8b/L
8g/
8e/
8e-/J
=76
8d/L
8B/
8c/
8f#/J
8a/L
8f#/J
12g\L
12b-\
12dd\J
=77
8ff\L
8dd\
8ee-\
8een\J
8cc\L
8cc#\
8dd\
8ccn\J
=78
8b-/L
8a/
8g/
8f/J
8e/L
8g/
8b-/
8dd/J
=79
8cc\L
8b\
8cc\
8dd\J
12ee-\L
12dd\
12dd-\J
8cc\L
8b\J
=80
8b-/L
8g-/
8e-/
8B/J
8d/L
8B-/
8G/
8A/J
=81
8c/L
8B-/
8A/
8B-/J
8d/L
[8f/J
4f/_
=82||
4f/]}
4r
2r
=83
2r
*>solo1aa
{8a-/L
16b-/L
16a-/J
8g/
8g-/J
=84
8f/L
8e-/
8d/
8c/J
8B-/L
8A/
8A-/
8B-/J
=85
8G/L
8B-/
8c/
8d/J
8f/L
8e-/
8g/
8b-/J
=86
8dd\L
8cc\
8dd\
8cc\J}
2r
=87
4r
{12cc#\L
12dd\
12cc#\J
8b-/L
8g-/
8e-/
8g-/J
=88
8b-\L
8dd-\
8cc\
8b-\J
8a/L
8g/
8f#/
8g/J
=89
8b-/L
8g-/
8e-/
8c/J
8d/L
8B-/
8G/
8A/J
=90
8c/L
8B-/
8A/
8B-/J
8d/L
8f/
8g/
8a/J
=91
8cc\L
8b\
8b-\
8a\J
8g/L
8f/
8e/
8c/J
=92
2d/}
2r
=93
2r
{8e-/L
[8f/J
4f/_
=94
1f_
=95
2f/]}
2r
=96
2r
2r
=97
*>solo2a
{12f/L
12g/
12f/J
8d/L
8f/J
12b-\L
12cc\
12b-\J
8f/L
8b-/J
=98||
8dd\L
8cc\
8b-\
8a\J
8cc/L
8b-/
8a/
8g/J
=99
8f/L
8e-/
8d/
8c/J
8B-/L
8A/
8A-/
8B-/J
=100
8b-/L
8g-/
8d/
8B-/J
8c/
8r
8r
8B-/
=101
8G/L
8B-/
8c/
8d/J
8f/L
8e-/
8d/
8e-/J
=102
8g\L
8b-\
8cc\
8dd\J
8ff\L
8dd\J}
4r
=103
2r
8r
{8f/
12g-\L
12b-\
12dd-\J
=104
8ff\L
8ee\
8ee-\
8dd\J
8dd-\L
8cc\
8b-\
8g-\J
=105
8e-/L
8c/
8a/
8g/J
8f/L
8e-/
8d/
8B-/J
=106
8c/L
8B-/
8A/
8B-/J
8d/L
8f/
8g/
8a/J
=107
8cc\L
8b\
8b-\
8a\J
8g/L
8f/
8e/
8c/J
=108
2d/}
2r
=109
2r
{8E-/L
8G/
8c/
8e-/J
=110
8d/L
8c/
8B/
8d/J
8f/L
8a-/
8g/
8f/J
=111
8e-/L
8g/
8b-/
8dd/J
8ff\L
8ee-\J}
4r
=112
1r
=113
{12dd\L
12dd#\
12ee\J
12ff\L
12ee\
12ee-\J
8ddn/L
8b-/
8g/
8f/J
=114||
8cc\L
8a\
8cc\
8dd-\J}
4r
8r
{8c#/
=115
12d/L
12f/
12a/J
8cc\L
8b\J
8b-/L
8a/
8a-/
8c/J
=116
8c#/L
8d/
8g/
8g-/J
8f/L
8e-/
8d/
8cn/J
=117
8B-/L
8A/
8A-/
8c/J
8G/L
8B-/
8c/
8d/J
=118
8f/L
8e-/
8g/
8b-/J
8dd\L
8cc\
8b-\
8g\J
=119
8e-/L
8c/
8d/
[8f/J
8f/L]
8f/J
4e-/}
=120
1r
=121
2r
{12d/L
12e-/
12en/J
12f/L
12e/
12e-/J
=122||
8d/L
8B-/
8G/
8A/J
8c/L
8A/J
12B-/L
12d/
12e/J
=123
8a/L
8g/
8e/
8c/J
2d/}
=124
1r
=125
2r
{8g#/L
8a/
8cc/
8b/J
=126
8b-/L
8a/
8a-/
8g/J
8g-/L
8f/
8e/
8B-/J
=127
8B/L
8d-/
8c/
8B-/J
8A/L
8f#/
8e-/
8en/J
=128
8f/L
8d/J}
4r
2r
=129
4r
*>solo2a
{8b/L
8g#/J
8e/L
8c#/
8a#/
8g#/J
=130||
8b/L
8g#/
8e/
8c#/J
8a#/L
8f#/
8d#/
8B/J
=131
8a#/L
8f#/
8d#/
8B/J
8g#/L
8f#/
8a#/
8f#/J
=132
8d#/L
8B/J
4g#/}
2r
=133
4r
{8a/L
8f#/J
8d/L
8B/
8g#/
8f#/J
=134
[2e/
8e/L]
8e-/
8d/
8en/J
=135
8f#/L
8g#/
8cc#/
8ccn/J
8b/L
8b-/
8a/
8f#/J
=136
8d/L
8B/
8c#/
8e/J}
2r
=137
2r
{8gg\L
16ee\L
16cc\J
8a\J
8r
=138||
8ff#\L
16dd\L
16b\J
8g\J
8r
8ee\L
16cc\L
16a\JJ
4f#/
=139
4dd\}
4r
8r
{8f#/L
8g/
8cc/J
=140
8b/L
8g/
8e/
8e-/J
8d/L
8c/J
12B/L
12d/
12f#/J
=141
8a/L
8g/J}
4r
2r
=142
8r
*>solo2aa
{8f#/
12g\L
12b-\
12dd\J
8ff\L
8dd\
8dd#\
8ee\J
=143
8cc\L
8cc#\
8dd\
8ccn\J
8b-/L
8a/
8g/
8f/J
=144
8e-/L
8g/
8b-/
8dd/J
8cc/L
8b-/
8a/
8g/J
=145
8f#/L
8g/
8b-/
8g/J
8e-/L
8c/
8fn/
8e-/J
=146||
8d/L
8B-/
8G/
8A/J
8c/L
8Bn/
8B-/
8A/J
=147
8A-/L
8B-/
8c/
8d/J
8b-/L
8g-/J}
4r
=148
1r
=149
2r
{8g\L
8b-\
8dd\
8ff\J
=150
12dd\L
12cc\
12b-\J
8g/L
8b-/J
8dd\L
[8ff\J
4ff\_
=151
4ff\]}
4r
8r
{8f/
12g-\L
12b-\
12dd-\J
=152
8ff\L
8ee\
8ee-\
8dd\J
8dd-\L
8cc\
8b-\
8g-\J
=153
8e-/L
8c/
8a/
8g/J
8f/L
8dd/
8d/
8B-/J
=154||
8c/L
8A/
8B-/
8c/J
8d/L
8f/
8g/
8a/J
=155
8cc\L
8b\
8b-\
8a\J
8g/L
8f/
8e/
8c/J
=156
2d/}
2r
=157
2r
{8f/L
8g/
8b-/
[8dd-/J
=158
8dd-\L]
8b-\J
[2cc\
8cc/L]
8a/J
=159
8b-/L
8f/
8d/
8B-/J
8a/L
8a-/
8g/
8g-/J
=160
8f/L
8e/
8e-/
8B-/J
8G/L
8F#/
8d/
8c/J
=161
4B-/}
2.r
==
*-
